src/assets/images/icons/github.svg

<svg width="32" height="32" viewBox="0 0 32 32" fill="none" xmlns="http://www.w3.org/2000/svg">
<path d="M22.1026 30V24.8466C22.1564 24.2116 22.0639 23.5733 21.8312 22.974C21.5985 22.3748 21.2309 21.8283 20.7528 21.371C25.2615 20.9049 30 19.3203 30 12.0496C29.9996 10.1904 29.2285 8.40249 27.8462 7.05594C28.5007 5.42936 28.4544 3.63144 27.7169 2.03568C27.7169 2.03568 26.0226 1.56961 22.1026 4.0065C18.8115 3.17932 15.3423 3.17932 12.0513 4.0065C8.13128 1.56961 6.43692 2.03568 6.43692 2.03568C5.69941 3.63144 5.65313 5.42936 6.30769 7.05594C4.91505 8.41247 4.14311 10.2165 4.15385 12.0895C4.15385 19.307 8.89231 20.8916 13.401 21.411C12.9286 21.8637 12.5643 22.4036 12.3317 22.9955C12.0992 23.5874 12.0036 24.2181 12.0513 24.8466V30M12.0513 26.0051C4.87179 28.0025 4.87179 22.676 2 22.0102L12.0513 26.0051Z" stroke="white" stroke-width="3" stroke-linecap="round" stroke-linejoin="round"/>
</svg>

<svg xmlns="http://www.w3.org/2000/svg" width="32" height="32" fill="none"><path stroke="#E1E2E8" stroke-linecap="round" stroke-linejoin="round" stroke-width="3" d="M22.1 30v-5.2c0-.6 0-1.2-.3-1.8-.2-.6-.6-1.2-1-1.6 4.5-.5 9.2-2 9.2-9.4a7 7 0 0 0-2.2-5c.7-1.6.7-3.4 0-5 0 0-1.8-.4-5.7 2-3.3-.8-6.8-.8-10 0-4-2.4-5.7-2-5.7-2a6.3 6.3 0 0 0 0 5 7 7 0 0 0-2.2 5c0 7.3 4.7 8.9 9.2 9.4-.5.5-.8 1-1 1.6-.3.6-.4 1.2-.3 1.8V30m0-4C4.9 28 4.9 22.7 2 22l10 4Z"/></svg>
